Simply-Cyan-Circles/scalable/apps/kbruch.svg

<svg xmlns="http://www.w3.org/2000/svg" width="48" height="48" viewBox="0 0 12.7 12.7"><path d="M6.34.07a6.29 6.29 0 0 0-6.29 6.3 6.29 6.29 0 0 0 6.3 6.28 6.29 6.29 0 0 0 6.28-6.29A6.29 6.29 0 0 0 6.34.07zM6.32 1l.01.01a5.4 5.4 0 0 1 5.4 5.4 5.4 5.4 0 0 1-5.4 5.41 5.4 5.4 0 0 1-5.41-5.4A5.4 5.4 0 0 1 6.32 1z" fill="#5beedc"/><text style="line-height:1.25;-inkscape-font-specification:'Century Schoolbook L'" x="5.338" y="4.315" font-weight="400" font-size="5.644" font-family="Century Schoolbook L" letter-spacing="0" word-spacing="0" stroke-width=".265"/><path d="M6.176 2.417l-.712.144v.366l.717-.143v2.269h-.657v.338h1.712v-.338h-.657V2.417h-.403zm-2.544 3.68v.507h5.436v-.508H3.632zM6.5 7.308L5.267 9.196v.385h1.341v.702h.403V9.58h.422v-.334H7.01V7.309H6.5zm.107.35v1.588H5.593l1.015-1.588z" fill="#5beedc" fill-rule="evenodd"/></svg>

<?xml version="1.0" encoding="UTF-8" standalone="no"?>
<svg
   xmlns:dc="http://purl.org/dc/elements/1.1/"
   xmlns:cc="http://creativecommons.org/ns#"
   xmlns:rdf="http://www.w3.org/1999/02/22-rdf-syntax-ns#"
   xmlns:svg="http://www.w3.org/2000/svg"
   xmlns="http://www.w3.org/2000/svg"
   xmlns:sodipodi="http://sodipodi.sourceforge.net/DTD/sodipodi-0.dtd"
   xmlns:inkscape="http://www.inkscape.org/namespaces/inkscape"
   width="48"
   height="48"
   viewBox="0 0 12.7 12.7"
   version="1.1"
   id="svg8"
   sodipodi:docname="kbruch.svg"
   inkscape:version="0.92.4 (5da689c313, 2019-01-14)">
  <metadata
     id="metadata14">
    <rdf:RDF>
      <cc:Work
         rdf:about="">
        <dc:format>image/svg+xml</dc:format>
        <dc:type
           rdf:resource="http://purl.org/dc/dcmitype/StillImage" />
        <dc:title></dc:title>
      </cc:Work>
    </rdf:RDF>
  </metadata>
  <defs
     id="defs12" />
  <sodipodi:namedview
     pagecolor="#ffffff"
     bordercolor="#666666"
     borderopacity="1"
     objecttolerance="10"
     gridtolerance="10"
     guidetolerance="10"
     inkscape:pageopacity="0"
     inkscape:pageshadow="2"
     inkscape:window-width="1087"
     inkscape:window-height="480"
     id="namedview10"
     showgrid="false"
     inkscape:zoom="4.9166667"
     inkscape:cx="2.1355932"
     inkscape:cy="24"
     inkscape:window-x="0"
     inkscape:window-y="25"
     inkscape:window-maximized="0"
     inkscape:current-layer="svg8" />
  <path
     d="M 6.34,0.07 A 6.29,6.29 0 0 0 0.05,6.37 6.29,6.29 0 0 0 6.35,12.65 6.29,6.29 0 0 0 12.63,6.36 6.29,6.29 0 0 0 6.34,0.07 Z M 6.32,1 6.33,1.01 a 5.4,5.4 0 0 1 5.4,5.4 5.4,5.4 0 0 1 -5.4,5.41 A 5.4,5.4 0 0 1 0.92,6.42 5.4,5.4 0 0 1 6.32,1 Z"
     id="path2"
     inkscape:connector-curvature="0"
     style="fill:#5beedc" />
  <text
     style="font-weight:400;font-size:5.64400005px;line-height:1.25;font-family:'Century Schoolbook L';-inkscape-font-specification:'Century Schoolbook L';letter-spacing:0;word-spacing:0;stroke-width:0.26499999"
     x="5.3379998"
     y="4.3150001"
     font-weight="400"
     font-size="5.644"
     letter-spacing="0"
     word-spacing="0"
     id="text4" />
  <path
     d="M 6.176,2.417 5.464,2.561 V 2.927 L 6.181,2.784 V 5.053 H 5.524 V 5.391 H 7.236 V 5.053 H 6.579 V 2.417 Z M 3.632,6.097 V 6.604 H 9.068 V 6.096 H 3.632 Z M 6.5,7.308 5.267,9.196 v 0.385 h 1.341 v 0.702 H 7.011 V 9.58 H 7.433 V 9.246 H 7.01 V 7.309 H 6.5 Z m 0.107,0.35 V 9.246 H 5.593 L 6.608,7.658 Z"
     id="path6"
     inkscape:connector-curvature="0"
     style="fill:#5beedc;fill-rule:evenodd" />
</svg>
